!!!COM: Joplin, Scott
!!!CDT: 1868/11/24/-1917/04/01/
!!!OTL: Augustan Club Waltz
!!!ODT: 1901///
**kern	**kern	**dynam
*staff2	*staff1	*staff1/2
*Ipiano	*Ipiano	*Ipiano
*>[I,A,A1,A,A2,B,B1,B,B2,C,C1,C,C2,D,D1,D,D2,E]	*>[I,A,A1,A,A2,B,B1,B,B2,C,C1,C,C2,D,D1,D,D2,E]	*>[I,A,A1,A,A2,B,B1,B,B2,C,C1,C,C2,D,D1,D,D2,E]
*>norep[I,A,A2,B,B2,C,C2,D,D2,E]	*>norep[I,A,A2,B,B2,C,C2,D,D2,E]	*>norep[I,A,A2,B,B2,C,C2,D,D2,E]
*>I	*>I	*>I
*clefF4	*clefG2	*clefG2
*k[b-e-]	*k[b-e-]	*k[b-e-]
*M3/4	*M3/4	*M3/4
*MM152	*MM152	*MM152
=1-	=1-	=1-
2F 2B- 2d	4.b-	f
.	4.bb-	.
4A- 4B- 4f	.	.
=2	=2	=2
2G 2B- 2en	4.b-	.
.	4.bb-	.
4G- 4B- 4e-	.	.
=3	=3	=3
4F 4B- 4d	4bb-	.
4r	4r	.
4r	4r	.
=4	=4	=4
4BBB- 4BB-	4bb- 4ddd 4fff 4bbb-	>
4r	4r	.
4r	4r	.
=5!|:	=5!|:	=5!|:
*>A	*>A	*>A
4BB-	[2.f	p
4F 4B- 4d	.	.
4F 4B- 4d	.	.
=6	=6	=6
4FF	4f]	.
4F 4B- 4d	4g	.
4F 4B- 4d	4f	.
=7	=7	=7
*	*^	*
4BB-	4r	[2.b-	.
4F 4B- 4d	8ffL	.	.
.	8een	.	.
4F 4B- 4d	8gg	.	.
.	8ffJ	.	.
=8	=8	=8	=8
4FF	8ddL	4b-]	.
.	8b-	.	.
4F 4B- 4d	8g	4r	.
.	8b-J	.	.
4F 4B- 4d	4f	4r	.
*	*v	*v	*
=9	=9	=9
4BB-	[2.dd	.
4F 4B- 4d	.	.
4F 4B- 4d	.	.
=10	=10	=10
4FF	4dd]	.
4F 4B- 4d	4cc	.
4F 4B- 4d	4b-	.
=11	=11	=11
*	*^	*
4C	4r	[2.e-	.
4F 4A 4e-	8ffL	.	.
.	8aa	.	.
4F 4A 4e-	8ccc	.	.
.	8aaJ	.	.
=12	=12	=12	=12
4FF	8ffL	4e-]	.
.	8ee-	.	.
4F 4A 4e-	8cc	4r	.
.	8aJ	.	.
4F 4A 4e-	4f	4r	.
*	*v	*v	*
=13	=13	=13
4C	[2.e-	.
4F 4A 4c	.	.
4F 4A 4c	.	.
=14	=14	=14
4FF	4e-]	.
4F 4A 4c	4f	.
4F 4A 4c	4e-	.
=15	=15	=15
*	*^	*
4C	4r	[2.a	.
4F 4A 4e-	8ffL	.	.
.	8aa	.	.
4F 4A 4e-	8ccc	.	.
.	8aaJ	.	.
=16	=16	=16	=16
4FF	8ffL	4a]	.
.	8ee-	.	.
4F 4A 4e-	8cc	4r	.
.	8aJ	.	.
4F 4A 4e-	4f	4r	.
*	*v	*v	*
=17	=17	=17
4AA	[2.cc	.
4F 4c 4e-	.	.
4F 4c 4e-	.	.
=18	=18	=18
4FF	4cc]	.
4F 4c 4e-	4b-	.
4F 4c 4e-	4a	.
=19	=19	=19
*	*^	*
4BB-	4r	[2.d	.
4F 4B- 4d	8b-L	.	.
.	8cc	.	.
4F 4B- 4d	8dd	.	.
.	8ee-J	.	.
=20	=20	=20	=20
4FF	8ffL	4d]	.
.	8dd	.	.
4F 4B- 4d	8bb-	4r	.
.	8ffJ	.	.
4F 4B- 4d	4dd	4r	.
*	*v	*v	*
=21	=21	=21
4BB-	[2.f	.
4F 4B- 4d	.	.
4F 4B- 4d	.	.
=22	=22	=22
4FF	4f]	.
4F 4B- 4d	4g	.
4F 4B- 4d	4f	.
=23	=23	=23
*	*^	*
4BB-	4r	[2.b-	.
4F 4B- 4d	8ffL	.	.
.	8een	.	.
4F 4B- 4d	8gg	.	.
.	8ffJ	.	.
=24	=24	=24	=24
4FF	8ddL	4b-]	.
.	8b-	.	.
4F 4B- 4d	8g	4r	.
.	8b-J	.	.
4F 4B- 4d	4f	4r	<
*	*v	*v	*
=25	=25	=25
4GG	[2.bn	.
4G 4d 4f	.	.
4G 4d 4f	.	.
=26	=26	=26
4BBn	4bn]	.
4G 4d 4f	4dd	.
4G 4d 4f	4ff	.
=27	=27	=27
*	*^	*
4C	4r	[2.ee-	.
4G 4c 4e-	8ff#L	.	.
.	8gg	.	.
4G 4c 4e-	8aa-	.	.
.	8ggJ	.	.
=28	=28	=28	=28
4E-	8cccL	4ee-]	.
.	8gg	.	.
4G 4c 4e-	8eee-	4r	>
.	8cccJ	.	.
4G 4c 4e-	4gg	4r	.
*	*v	*v	*
=29	=29	=29
*^	*	*
4r	2.En	[2.b-	p
4G 4B- 4c#	.	.	.
4G 4B- 4c#	.	.	.
*v	*v	*	*
=30	=30	=30
4En	4b-]	.
4G 4B- 4c#	4en	.
4G 4B- 4c#	4g	.
=31	=31	=31
*	*^	*
4F	4r	[2.f	.
4B- 4d	8ddL	.	.
.	8ee-	.	.
4B- 4d	8dd	.	.
.	8b-J	.	.
=32	=32	=32	=32
4F	8ddL	4f]	.
.	8ee-	.	.
4B- 4d	8ff	4r	.
.	8ggJ	.	.
4B- 4d	4ff	4r	.
*	*v	*v	*
=33	=33	=33
4C	[2.g	.
4G 4B- 4c 4en	.	.
4G 4B- 4c 4e	.	.
=34	=34	=34
4FF	4g]	.
4F 4c 4e-	4a	.
4F 4A 4e-	4cc	.
=35	=35	=35
*>A1	*>A1	*>A1
*	*^	*
4BB- 4B-	4r	[2.b-	.
4F	(8ddL	.	.
.	8ee-	.	.
4D	8een	.	.
.	8ffJ	.	.
=36	=36	=36	=36
4BB-	4bb-)	4b-]	.
4r	4r	4dd	.
4r	4r	4dd	.
=37:|!	=37:|!	=37:|!	=37:|!
*	*v	*v	*
*>A2	*>A2	*>A2
*	*^	*
4BB- 4B-	8r	[2.b-	.
.	8b- 8ddL	.	.
4F	8b- 8dd	.	.
.	8dd 8ff	.	.
4D	8dd 8ff	.	.
.	8dd 8bb-J	.	.
=38	=38	=38	=38
4BB-	4dd 4bb-	4b-]	.
4r	2r	4r	.
4r	.	4bb-	.
*	*v	*v	*
=39!|:	=39!|:	=39!|:
*>B	*>B	*>B
*^	*	*
4r	2.E-	(8cccL	f
.	.	8bb-	.
4G 4c	.	8aa	.
.	.	8bb-	.
4G 4c	.	8aa	.
.	.	8bb-J	.
=40	=40	=40	=40
4r	2.F	8aaL	.
.	.	8gg	.
4A 4c 4e-	.	8ff	.
.	.	8ee-	.
4A 4c 4e-	.	8dd	.
.	.	8ccJ)	.
*v	*v	*	*
=41	=41	=41
4BB-	(8ddL	.
.	8f	.
4F 4B- 4d	8g	.
.	8a	.
4F 4B- 4d	8b-	.
.	8ccJ	.
=42	=42	=42
4FF	8ddL	.
.	8ee-	.
4F 4B- 4d	8ff	.
.	8ggJ	.
4F 4B- 4d	4ff)	.
=43	=43	=43
4C	8a 8ee- 8aaL	.
.	8a 8ee- 8aaJ	.
4F 4c 4e-	4.a 4.ee- 4.aa	.
4F 4c 4e-	.	.
.	8b- 8ee- 8bb-	.
=44	=44	=44
4FF	8cc 8ee- 8cccL	.
.	8cc 8ee- 8cccJ	.
4F 4A 4e-	4.cc 4.ee- 4.ccc	.
4F 4A 4e-	.	.
.	8cc# 8een 8ccc#	.
=45	=45	=45
4BB-	8dd 8ff 8dddL	.
.	8dd 8ff 8dddJ	.
4F 4B- 4d	4dd 4ff 4ddd	.
4F 4B- 4d	[4ff [4ddd [4fff	.
=46	=46	=46
4D	2ff] 2ddd] 2fff]	.
4F 4B- 4d	.	.
4F 4B- 4d	4bb-	.
=47	=47	=47
*^	*	*
4r	2.E-	(8cccL	.
.	.	8bb-	.
4G 4c	.	8aa	.
.	.	8bb-	.
4G 4c	.	8aa	.
.	.	8bb-J	.
=48	=48	=48	=48
4r	2.F	8aaL	.
.	.	8gg	.
4A 4c 4e-	.	8ff	.
.	.	8ee-	.
4A 4c 4e-	.	8dd	.
.	.	8ccJ)	.
*v	*v	*	*
=49	=49	=49
4BB-	(8ddL	.
.	8f	.
4F 4B- 4d	8g	.
.	8a	.
4F 4B- 4d	8b-	.
.	8ccJ	.
=50	=50	=50
4FF	8ddL	.
.	8ee-	.
4F 4B- 4d	8ff	.
.	8ggJ	.
4F 4B- 4d	4ff)	.
=51	=51	=51
4AA	(8ffL	.
.	8een	.
4A 4d 4f	8ff	.
.	8dd	.
4A 4d 4f	8a	.
.	8ffJ	.
=52	=52	=52
4AA	8eenL	.
.	8a	.
4A 4c# 4g	8aa	.
.	8gg	.
4A 4c# 4g	8ff	.
.	8eeJ	.
=53	=53	=53
4d 4f	4dd)	.
4BB- 4B-	4ddd	.
4AA 4A	4ddd	.
=54	=54	=54
4DD^ 4D^	4dd^ 4ff^ 4aa^ 4ddd^	.
4r	4r	.
4r	4bb-	.
=55	=55	=55
*^	*	*
4r	2.E-	(8cccL	.
.	.	8bb-	.
4G 4c	.	8aa	.
.	.	8bb-	.
4G 4c	.	8aa	.
.	.	8bb-J	.
=56	=56	=56	=56
4r	2.F	8aaL	.
.	.	8gg	.
4A 4c 4e-	.	8ff	.
.	.	8ee-	.
4A 4c 4e-	.	8dd	.
.	.	8ccJ)	.
*v	*v	*	*
=57	=57	=57
4BB-	(8ddL	.
.	8f	.
4F 4B- 4d	8g	.
.	8a	.
4F 4B- 4d	8b-	.
.	8ccJ	.
=58	=58	=58
4FF	8ddL	.
.	8ee-	.
4F 4B- 4d	8ff	.
.	8ggJ	.
4F 4B- 4d	4ff)	.
=59	=59	=59
4C	8a 8ee- 8aaL	.
.	8a 8ee- 8aaJ	.
4F 4c 4e-	4.a 4.ee- 4.aa	.
4F 4c 4e-	.	.
.	8b- 8ee- 8bb-	.
=60	=60	=60
4FF	8cc 8ee- 8cccL	.
.	8cc 8ee- 8cccJ	.
4F 4A 4e-	4.cc 4.ee- 4.ccc	.
4F 4A 4e-	.	.
.	8cc# 8een 8ccc#	.
=61	=61	=61
4BB-	8dd 8ff 8dddL	.
.	8dd 8ff 8dddJ	.
4F 4B- 4d	4dd 4ff 4ddd	.
4F 4B- 4d	[4ff [4ddd [4fff	.
=62	=62	=62
4D	4.ff] 4.ddd] 4.fff]	.
4F 4B- 4d	.	.
.	(8dddL	.
4F 4B- 4d	8bb-	.
.	8ffJ)	.
=63	=63	=63
*^	*	*
4r	2.E-	(8ff#L	.
.	.	8gg	.
4G 4c	.	8aa	.
.	.	8gg	.
4G 4c	.	8ccc	.
.	.	8eee-J)	.
=64	=64	=64	=64
4r	2.En	2.gg 2.ggg	.
4G 4B- 4c#	.	.	.
4G 4B- 4c#	.	.	.
*v	*v	*	*
=65	=65	=65
4F	(8gggL	.
.	8fff	.
4B- 4d	8ddd	.
.	8bb-	.
4B- 4d	8gg	.
.	8ffJ)	.
=66	=66	=66
4F	2ff 2ddd	.
4B- 4d	.	.
4B- 4d	4ff 4ddd	.
=67	=67	=67
4C	(8dddL	.
.	8een	.
4G 4B- 4c 4en	8gg	.
.	8bb-	.
4G 4B- 4c 4e	8ddd	.
.	8ggJ)	.
=68	=68	=68
4FF	(8cccL	.
.	8ee-	.
4F 4A 4e-	8ff	.
.	8aa	.
4F 4A 4e-	8ccc	.
.	8ffJ)	.
=69	=69	=69
*>B1	*>B1	*>B1
4BB- 4B-	[2.dd [2.bb-	.
4F	.	.
4D	.	.
=70	=70	=70
4BB-	4dd] 4bb-]	.
4r	4ff	.
4r	4bb-	.
=71:|!	=71:|!	=71:|!
*>B2	*>B2	*>B2
*	*^	*
4BB- 4B-	4r	[2.dd [2.bb-	.
4F	8ddL	.	.
.	8ee-	.	.
4D	8een	.	.
.	8ffJ	.	.
*	*v	*v	*
=72	=72	=72
4BB-	4dd] 4bb-]	>
4r	4b-	.
4r	4g	.
=73!|:	=73!|:	=73!|:
*>C	*>C	*>C
4GG	[2.d	p
4D 4G 4B-	.	.
4D 4G 4B-	.	.
=74	=74	=74
4DD	4.d]	.
4D 4G 4B-	.	.
.	8dL	.
4D 4G 4B-	8g	.
.	8b-J	.
=75	=75	=75
4GG	2d 2g 2b- 2dd	.
4D 4G 4B-	.	.
4D 4G 4B-	[4d [4g [4b- [4dd	.
=76	=76	=76
4BB-	4.d] 4.g] 4.b-] 4.dd]	.
4D 4G 4B-	.	.
.	8gL	.
4D 4G 4B-	8b-	.
.	8ddJ	.
=77	=77	=77
4C	[2.g [2.cc [2.ee- [2.gg	.
4E- 4G 4c	.	.
4E- 4G 4c	.	.
=78	=78	=78
4C	4.g] 4.cc] 4.ee-] 4.gg]	.
4E- 4G 4c	.	.
.	8ee- 8ggL	.
4E- 4G 4c	8dd 8ff	.
.	8cc 8ee-J	.
=79	=79	=79
4GG	2b- 2dd	.
4D 4G 4B-	.	.
4D 4G 4B-	[4g [4b- [4dd	.
=80	=80	=80
4DD	4.g] 4.b-] 4.dd]	.
4D 4G 4B-	.	.
.	8b- 8ddL	.
4D 4G 4B-	8a 8cc	.
.	8g 8b-J	.
=81	=81	=81
4D	[2.f# [2.a	.
4F# 4c 4d	.	.
4F# 4c 4d	.	.
=82	=82	=82
4DD	4.f#] 4.a]	.
4F# 4c 4d	.	.
.	8a 8ccL	.
4F# 4c 4d	8g 8b-	.
.	8f# 8aJ	.
=83	=83	=83
4GG	2g	.
4G 4B- 4d	.	.
4G 4B- 4d	[4g	.
=84	=84	=84
4BB-	4.g]	.
4G 4B- 4d	.	.
.	(8f#L	.
4G 4B- 4d	8g	.
.	8aJ)	.
=85	=85	=85
4EE- 4E-	[2.g [2.b-	<
4G 4B- 4e-	.	.
4G 4B- 4e-	.	.
=86	=86	=86
4EE- 4E-	4.g] 4.b-]	.
4G 4B- 4e-	.	.
.	8g 8b-L	.
4EE- 4E-	8g 8a 8cc	.
.	8g 8a 8cc#J	.
=87	=87	=87
*	*^	*
4DD 4D	2r	4f# 4a 4dd	.
4r	.	4r	.
4EE- 4E-	8bb-L	4cc# 4gg	.
.	8aaJ	.	.
*	*v	*v	*
=88	=88	=88
4DD 4D	4dd^ 4ff#^ 4aa^ 4ddd^	>
4r	4r	.
4r	4r	.
=89	=89	=89
4GG	[2.d	.
4D 4G 4B-	.	.
4D 4G 4B-	.	.
=90	=90	=90
4DD	4.d]	.
4D 4G 4B-	.	.
.	8dL	.
4D 4G 4B-	8g	.
.	8b-J	.
=91	=91	=91
4GG	2d 2g 2b- 2dd	.
4D 4G 4B-	.	.
4D 4G 4B-	[4d [4g [4b- [4dd	.
=92	=92	=92
4BB-	4.d] 4.g] 4.b-] 4.dd]	.
4D 4G 4B-	.	.
.	8gL	.
4D 4G 4B-	8b-	.
.	8ddJ	.
=93	=93	=93
4C	[2.g [2.cc [2.ee- [2.gg	.
4E- 4G 4c	.	.
4E- 4G 4c	.	.
=94	=94	=94
4C	4.g] 4.cc] 4.ee-] 4.gg]	.
4E- 4G 4c	.	.
.	8ee- 8ggL	.
4E- 4G 4c	8dd 8ff	.
.	8cc 8ee-J	.
=95	=95	=95
4GG	2b- 2dd	.
4D 4G 4B-	.	.
4D 4G 4B-	[4g [4b- [4dd	.
=96	=96	=96
4GG	4.g] 4.b-] 4.dd]	.
4D 4G 4B-	.	.
.	8gL	.
4D 4G 4B-	8b-	.
.	8ddJ	.
=97	=97	=97
4C	[2.g [2.cc [2.ee- [2.gg	.
4E- 4G 4c	.	.
4E- 4G 4c	.	.
=98	=98	=98
4C	4.g] 4.cc] 4.ee-] 4.gg]	.
4E- 4G 4c	.	.
.	8ee- 8ggL	.
4E- 4G 4c	8dd 8ff	.
.	8cc 8ee-J	.
=99	=99	=99
4GG	2b- 2dd	.
4D 4G 4B-	.	.
4D 4G 4B-	[4g [4b- [4dd	.
=100	=100	=100
4DD	4.g] 4.b-] 4.dd]	.
4D 4G 4B-	.	.
.	8bb-L	.
4D 4G 4B-	8gg	.
.	8ddJ	.
=101	=101	=101
4AA	2f# 2cc 2ee-	.
4F# 4c 4d	.	.
4F# 4c 4d	[4f# [4cc [4dd	.
=102	=102	=102
4DD	4.f#] 4.cc] 4.dd]	.
4F# 4c 4d	.	.
.	8ccL	.
4F# 4c 4d	8a	.
.	8b-J	.
=103	=103	=103
*>C1	*>C1	*>C1
4G 4B- 4d	[2.g	.
4EE- 4E-	.	.
4DD 4D	.	.
=104	=104	=104
4GGG 4GG	4g]	.
4r	(4b-	.
4r	4g)	.
=105:|!	=105:|!	=105:|!
*>C2	*>C2	*>C2
2.G 2.B- 2.d	2.g	<
=106	=106	=106
2.FF^ 2.F^	2.B- 2.d 2.a- 2.b-	.
=107!|:	=107!|:	=107!|:
*>D	*>D	*>D
*	*^	*
2.EE- 2.E-	4r	2.B- 2.b-	mf
.	4e- 4g	.	.
.	4e- 4g	.	.
=108	=108	=108	=108
2.EE- 2.E-	2.c 2.cc	4r	.
.	.	4e- 4g-	.
.	.	4e- 4g-	.
=109	=109	=109	=109
2.BBB- 2.BB-	4r	[2.F [2.f	.
.	4B- 4d	.	.
.	4B- 4d	.	.
=110	=110	=110	=110
2.DD 2.D	2.F] 2.f]	4r	.
.	.	4B- 4d	.
.	.	4B- 4d	.
=111	=111	=111	=111
2.EE- 2.E-	2.B- 2.b-	4r	.
.	.	4e- 4g	.
.	.	4e- 4g	.
=112	=112	=112	=112
2.EE- 2.E-	2B- 2b-	4r	.
.	.	4e- 4g-	.
.	4c 4cc	4e- 4g-	.
=113	=113	=113	=113
2.BBB- 2.BB-	[2.d [2.dd	4r	.
.	.	4f 4b-	.
.	.	4f 4b-	.
=114	=114	=114	=114
2.DD 2.D	4r	2.d] 2.dd]	.
.	4f 4b-	.	.
.	4f 4b-	.	.
=115	=115	=115	=115
2.EE- 2.E-	2.B- 2.b-	4r	.
.	.	4e- 4g	.
.	.	4e- 4g	.
=116	=116	=116	=116
2.EE- 2.E-	2.c 2.cc	4r	.
.	.	4e- 4g-	.
.	.	4e- 4g-	.
=117	=117	=117	=117
2.DD 2.D	2.F 2.f	4r	.
.	.	4B- 4d	.
.	.	4B- 4d	.
=118	=118	=118	=118
2.DD- 2.D-	2.G 2.g	4r	.
.	.	4B- 4d-	.
.	.	4B- 4d-	.
=119	=119	=119	=119
2.CC 2.C	2A 2a	4r	.
.	.	4c 4f	.
.	4c 4cc	4f 4a	.
=120	=120	=120	=120
2GG 2G	2d 2dd	4r	.
.	.	4f 4bn	.
4CC 4C	4en 4een	4g 4b-	.
=121	=121	=121	=121
4FF 4F	[2.f [2.ff	4r	.
4C	.	4a 4cc	.
4AA	.	4a 4cc	.
=122	=122	=122	=122
4FF	4f] 4ff]	4a 4cc	.
4r	4r	4r	.
4r	4r	4r	.
=123	=123	=123	=123
2.EE- 2.E-	2.B- 2.b-	4r	mf
.	.	4e- 4g	.
.	.	4e- 4g	.
=124	=124	=124	=124
2.EE- 2.E-	2.c 2.cc	4r	.
.	.	4e- 4g-	.
.	.	4e- 4g-	.
=125	=125	=125	=125
2.BBB- 2.BB-	[2.F [2.f	4r	.
.	.	4B- 4d	.
.	.	4B- 4d	.
=126	=126	=126	=126
2.DD 2.D	2.F] 2.f]	4r	.
.	.	4B- 4d	.
.	.	4B- 4d	.
=127	=127	=127	=127
2.EE- 2.E-	2.B- 2.b-	4r	.
.	.	4e- 4g	.
.	.	4e- 4g	.
=128	=128	=128	=128
2.EE- 2.E-	2B- 2b-	4r	.
.	.	4e- 4g-	.
.	4c 4cc	4e- 4g-	.
=129	=129	=129	=129
2.BBB- 2.BB-	[2.d [2.dd	4r	.
.	.	4f 4b-	.
.	.	4f 4b-	.
=130	=130	=130	=130
2.DD 2.D	4r	2.d] 2.dd]	.
.	4f 4b-	.	.
.	4f 4b-	.	.
*	*v	*v	*
=131	=131	=131
*^	*	*
4r	2.EE- 2.E-	2.g 2.ee- 2.gg	<
4G 4B- 4e-	.	.	.
4G 4B- 4e-	.	.	.
=132	=132	=132	=132
4r	2.EEn 2.En	4b- 4dd- 4bb-	.
4E 4G 4B- 4c#	.	4a 4dd- 4aa	.
4E 4G 4B- 4c#	.	4g 4dd- 4gg	.
=133	=133	=133	=133
4r	2.FF 2.F	2.f 2.ddn 2.ff	.
4F 4B- 4d	.	.	.
4F 4B- 4d	.	.	.
*v	*v	*	*
=134	=134	=134
4GG	2f 2bn 2ee-	.
4G 4Bn	.	.
4G 4B	4f 4b 4dd	.
=135	=135	=135
4C	2.en 2.g 2.b- 2.dd	.
4G 4B- 4c	.	.
4G 4B- 4c	.	.
=136	=136	=136
4FF	2.e- 2.f 2.a 2.cc	.
4F 4A	.	.
4F 4A	.	.
=137	=137	=137
*>D1	*>D1	*>D1
4BB- 4B-	[2.d [2.f [2.b-	.
4F	.	.
4D	.	.
=138	=138	=138
4BB-	4d] 4f] 4b-]	>
4r	(4d	.
4r	4f)	.
=139:|!	=139:|!	=139:|!
*>D2	*>D2	*>D2
4BB- 4B-	4d 4f 4b-	.
4DD 4D	4d 4dd	.
4EE- 4E-	4e- 4ee-	.
=140	=140	=140
4FF 4F	4f 4ff	.
4GG 4G	4g 4gg	.
4AA 4A	4a 4aa	.
=141	=141	=141
*>E	*>E	*>E
4BB- 4B-	4b- 4bb-	.
4G- 4g-	4gg- 4ggg-	.
4F 4f	4ff 4fff	.
=142	=142	=142
4D- 4d-	4dd- 4ddd-	.
4BB- 4B-	4b- 4bb-	.
4GG- 4G-	4g- 4gg-	.
=143	=143	=143
4FF 4F	4f 4ff	.
4r	4r	.
4FF 4F	4a 4ee- 4ff	.
=144	=144	=144
4BB- 4B-	4b- 4dd 4ff 4bb-	.
4r	4r	.
4r	4r	.
=145	=145	=145
4B- 4d 4f	4dd 4ff 4ddd 4fff	.
4r	4r	.
4r	4r	.
=146	=146	=146
4BB- 4B-	4b- 4dd 4ff 4bb-	.
4r	4r	.
4r	4r	.
=147	=147	=147
2.BB-; 2.G-;	2.B-; 2.e-; 2.b-;	.
=148	=148	=148
2.BB-; 2.F;	2.B-; 2.d; 2.b-;	ff
==	==	==
*-	*-	*-
!!!ENC: Craig Stuart Sapp
!!!END: 2005/02/05/
